X:1
T:[ID 5-24]
T:[ID 5-24]
T:Bezeichnung standardisiert: Holl\"andisch Hollendisch 16.
T:Urheber unbekannt Datum in der hier transkribierten schriftlichen Quelle: 1775
C:Urheber unbekannt
C:Datum in der hier transkribierten schriftlichen Quelle: 1775
L:1/8
M:4/4
K:G
V:1 treble 
V:1
 G2 | G2 GA B2 e2 | e2 dc B2 B2 | A2 c2 B2 A2 | BABc B2 B,2 | B,2 GA B2 e2 | d2 e2 f2 e2 | %7
 d2 cB AGFE | F6 :: B2 | B4 B2 A2 | G4 G4 | ^G2 GA B2 AG | A2 ^G2 G2 ^d2 | e2 ^d2 e2 d2 | %15
 e2 f2 g4 | ^G2 B2 A2 GF | ^G6 A2 | B2 B2 B2 A2 | G4 B,4 | A2 G2 F2 GA | B2 D2 D2 B2 | %22
 B2 BA G2 c2 | c2 B2 B2 B2 | A2 c2 B2 A2 | B6 :| %26

